X:1
T:Da Pacem
T:Da Pacem
T:Giles Farnaby
T:Source : The Whole Book of Psalms---London---Musical Antiquarian Society---1844. First publication : London---Th.Est(e)---1592. Editor : André Vierendeels (24/08/16).
T:Notes :  Original clefs :C1, C3, C4, F4 Editorial accidentals above the staff Original note values have been halved except m 6, 12, 15, 18 and 24
T:©
T:©
T:©
C:Giles Farnaby
Z:©
%%score [ 1 [ 2 3 ] 4 ]
L:1/8
Q:1/4=120
M:4/4
K:C
V:1 treble nm="Soprano" snm="S"
V:2 treble-8 nm="Tenor 1" snm="T 1"
V:3 treble-8 nm="Tenor 2" snm="T 2"
V:4 bass nm="Bass" snm="B"
V:1
 A4 A4 | A3 G F4 | ED D2 ^C4 || d2 c4 B2 | c2 A2 A4 | A8 | A4 A2 F2 | E2 A3 B c2 | B2 A2 A4 || %9
w: Give peace|in these our|days, _ O, God,|great dan- gers|are now at|hand,|thine e- ne-|mies with _ one|ac- * cord,|
 d2 c4 B2 | c2 A2 A4 | A8 | G2 A4 ^G2 | A2 F2 E2 E2 | E8 || c4 d2 e2 | d2 c4 B2 | c8 | G4 A2 G2 | %19
w: Christ's name in|eve- * ry|land,|seek to de-|face root out and|race,|thy true right|wor- ship in-|deed,|be thou the|
 G2 A4 ^F2 | D2 c2 B4 || G2 A2 DG ^F2 | G2 G2 AB c2 | !fermata!c8 |] %24
w: stay, Lord, we|thee _ pray,|thou helpst a- * lone|in all _ _ _|need.|
V:2
 ^c4 d2 f2 | e2 A4 dc | _B2 A2 A4 || d2 e3 f g2 | e4 A2 d2 | ^c8 | ^c2 e3 d d2 | ^c3 d e2 =c2 | %8
w: Give peace _|in these our _|days, O, Lord,|great dan- * gers|are now at|hand,|thine e- ne- mies|with _ _ _|
 d2 d2 ^c4 || d2 e3 f g2 | f2 e2 A2 d2 | ^c8 | c2 e4 e2 | c2 d2 c2 B2 | ^c8 || e4 d2 c2 | %16
w: one ac- cord,|Christ's name _ in|eve- * * ry|land,|seek to de-|face root out and|race,|thy true right|
 d2 ef g4 | e8 | e4 f2 d2 | e4 d2 A2 | B2 cA d4 || c2 A2 B2 c2 | d2 e2 f2 cd | !fermata!e8 |] %24
w: wor- ship _ in-|deed,|be thou the|stay, Lord, we|thee _ _ pray,|thou helpst a- lone|in all _ _ _|need.|
V:3
 E4 F2 D2 | E4 A4 | G2 F2 E4 || G4 c2 G2 | A2 E2 F4 | E8 | E4 F2 D2 | E4 A4 | G2 F2 E4 || %9
w: Give peace in|these our|days, O, Lord,|great dan- gers|are now at|hand,|thine e- ne-|mies with|one ac- cord,|
 G4 c2 G2 | A2 E2 F4 | E8 | e4 c2 B2 | A2 B2 A2 ^G2 | A8 || G4 G2 G2 | B2 c2 d4 | c8 | c4 A2 B2 | %19
w: Christ's name in|eve- * ry|land,|seek to de-|face root out and|race,|thy true right|wor- ship in-|deed,|be thou the|
 c4 A4 | G2 ^F2 G4 || E4 G2 A2 | B2 c2 A4 | !fermata!G8 |] %24
w: stay, Lord,|we the pray,|thou helpst a-|lone in all|need.|
V:4
 A,,4 D,4 | ^C,3 C, D,4 | G,,2 D,2 A,,4 || B,,2 C,4 E,2- | E,A,, ^C,2 D,4 | A,,8 | A,,4 A,,4 | %7
w: ||||||thine e-|
 A,,3 B,, ^C,2 A,,2 | B,,2 D,2 A,,4 ||"^-natural" B,,2 C,4 E,2- | E,A,, ^C,2 D,4 | A,,8 | %12
w: ne- * mies with|one ac- cord,|Christ's name in-|* * eve- ry|land,|
 C,3 D, E,2 E,2 | F,2 D,2 E,2 E,2 | A,,8 || C,4 B,,2 C,2 | G,,4 G,2 G,2 | C,8 | C,4 F,2 G,2 | %19
w: seek _ to de-|face root out and|race,|thy true right|wor- ship in-|deed,|be thou the|
 C,4 D,3 C, | B,,2 A,,2 G,,4 || C,4 B,,2 A,,2 | G,,2 C,2 F,,4 | !fermata!C,8 |] %24
w: stay, Lord, we|the _ pray,|thou helpst a-|lone in all|need.|

